gama.ui.shared/icons_svg/dark/navigator/files/file.image.svg

<svg height="16.875" viewBox="-774.872 -3501.799 16.75 16.875" width="16.75" xmlns="http://www.w3.org/2000/svg"><g fill="none"><path d="m-774.497-3501.4237h16.000047v16.000047h-16.000047z"/><path d="m-770.6574-3500.4196 4.96005-.16 3.36005-.16 3.2 3.2001-.16 11.68h-11.3601z" fill="#666566"/><path d="m-758.4977-3497.6768v10.3778c0 1.1045-.8955 2-2 2h-8.8001c-1.1045 0-2-.8955-2-2v-12c0-1.1047.8955-2 2-2h7.1777c.1062-.007.2167.0285.3052.117l3.2 3.2c.0885.0885.1239.199.1172.3052zm-4-2.8222h-6.8001c-.6627 0-1.2.537-1.2 1.2v12c0 .6626.5373 1.2 1.2 1.2h8.8001c.6627 0 1.2-.5374 1.2-1.2v-10h-2.8c-.22095 0-.4-.1792-.4-.4zm.8.5655v1.8345h1.8343zm.8 10.2255c.0001.006.0001.012-.0001.0178-.0052 1.1002-.8986 1.9902-1.9999 1.9902h-4.00005c-1.10455 0-2.00005-.8954-2.00005-2v-4c0-1.1045.8955-2 2.00005-2h4.00005c1.1045 0 2 .8955 2 2zm-.8-.639v-3.353c0-.6627-.5373-1.2-1.2-1.2h-4.00005c-.66275 0-1.20005.5373-1.20005 1.2v2.2344l.9172-.9172c.1562-.1562.4095-.1562.5657 0l2.1961 2.1962 1.3422-.6711c.1126-.0563.2451-.0563.3577 0zm-.0232.8827-1.1768-.5884-1.4212.7107c-.154.077-.33995.0467-.4617-.075l-2.11715-2.1172-1.20005 1.2v.6342c0 .663.5373 1.2 1.20005 1.2h4.00005c.58205 0 1.0673-.4144 1.1768-.9643zm-2.37685-3.8357v.8h.80005v-.8zm0-.8h.80005c.4418 0 .8.3582.8.8v.8c0 .442-.3582.8-.8.8h-.80005c-.44185 0-.8-.358-.8-.8v-.8c0-.4418.35815-.8.8-.8z" fill="#fff"/></g></svg>

<?xml version="1.0" encoding="UTF-8" standalone="no"?>
<!DOCTYPE svg PUBLIC "-//W3C//DTD SVG 1.1//EN" "http://www.w3.org/Graphics/SVG/1.1/DTD/svg11.dtd">
<svg xmlns="http://www.w3.org/2000/svg" version="1.1" xmlns:xl="http://www.w3.org/1999/xlink" xmlns:dc="http://purl.org/dc/elements/1.1/" viewBox="-774.872 -3501.7987 16.750047 16.8746" width="16.750047" height="16.8746">
  <defs/>
  <g id="SOURCES" stroke-opacity="1" stroke-dasharray="none" fill="none" fill-opacity="1" stroke="none">
    <title>SOURCES</title>
    <g id="SOURCES_Dark">
      <title>Dark</title>
      <g id="Graphic_11660">
        <rect x="-774.497" y="-3501.4237" width="16.000047" height="16.000047" stroke="gray" stroke-opacity="0" stroke-linecap="round" stroke-linejoin="round" stroke-width="0"/>
      </g>
      <g id="Graphic_11659">
        <path d="M -770.6574 -3500.4196 L -765.69735 -3500.5796 L -762.3373 -3500.7396 L -759.1373 -3497.5395 L -759.2973 -3485.8595 L -770.6574 -3485.8595 Z" fill="#666566"/>
      </g>
      <g id="Graphic_11658">
        <path d="M -758.4977 -3497.6768 L -758.4977 -3487.299 C -758.4977 -3486.1945 -759.3932 -3485.299 -760.4977 -3485.299 L -769.2978 -3485.299 C -770.4023 -3485.299 -771.2978 -3486.1945 -771.2978 -3487.299 L -771.2978 -3499.299 C -771.2978 -3500.4037 -770.4023 -3501.299 -769.2978 -3501.299 L -762.1201 -3501.299 C -762.0139 -3501.306 -761.9034 -3501.2705 -761.8149 -3501.182 L -758.6149 -3497.982 C -758.5264 -3497.8935 -758.491 -3497.783 -758.4977 -3497.6768 Z M -762.4977 -3500.499 L -769.2978 -3500.499 C -769.9605 -3500.499 -770.4978 -3499.962 -770.4978 -3499.299 L -770.4978 -3487.299 C -770.4978 -3486.6364 -769.9605 -3486.099 -769.2978 -3486.099 L -760.4977 -3486.099 C -759.835 -3486.099 -759.2977 -3486.6364 -759.2977 -3487.299 L -759.2977 -3497.299 L -762.0977 -3497.299 C -762.31865 -3497.299 -762.4977 -3497.4782 -762.4977 -3497.699 Z M -761.6977 -3499.9335 L -761.6977 -3498.099 L -759.8634 -3498.099 Z M -760.8977 -3489.708 C -760.8976 -3489.702 -760.8976 -3489.696 -760.8978 -3489.6902 C -760.903 -3488.59 -761.7964 -3487.7 -762.8977 -3487.7 L -766.89775 -3487.7 C -768.0023 -3487.7 -768.8978 -3488.5954 -768.8978 -3489.7 L -768.8978 -3493.7 C -768.8978 -3494.8045 -768.0023 -3495.7 -766.89775 -3495.7 L -762.8977 -3495.7 C -761.7932 -3495.7 -760.8977 -3494.8045 -760.8977 -3493.7 L -760.8977 -3489.708 Z M -761.6977 -3490.347 L -761.6977 -3493.7 C -761.6977 -3494.3627 -762.235 -3494.9 -762.8977 -3494.9 L -766.89775 -3494.9 C -767.5605 -3494.9 -768.0978 -3494.3627 -768.0978 -3493.7 L -768.0978 -3491.4656 L -767.1806 -3492.3828 C -767.0244 -3492.539 -766.7711 -3492.539 -766.6149 -3492.3828 L -764.4188 -3490.1866 L -763.0766 -3490.8577 C -762.964 -3490.914 -762.8315 -3490.914 -762.7189 -3490.8577 L -761.6977 -3490.347 Z M -761.7209 -3489.4643 L -762.8977 -3490.0527 L -764.3189 -3489.342 C -764.4729 -3489.265 -764.65885 -3489.2953 -764.7806 -3489.417 L -766.89775 -3491.5342 L -768.0978 -3490.3342 L -768.0978 -3489.7 C -768.0978 -3489.037 -767.5605 -3488.5 -766.89775 -3488.5 L -762.8977 -3488.5 C -762.31565 -3488.5 -761.8304 -3488.9144 -761.7209 -3489.4643 Z M -764.09775 -3493.3 L -764.09775 -3492.5 L -763.2977 -3492.5 L -763.2977 -3493.3 Z M -764.09775 -3494.1 L -763.2977 -3494.1 C -762.8559 -3494.1 -762.4977 -3493.7418 -762.4977 -3493.3 L -762.4977 -3492.5 C -762.4977 -3492.058 -762.8559 -3491.7 -763.2977 -3491.7 L -764.09775 -3491.7 C -764.5396 -3491.7 -764.89775 -3492.058 -764.89775 -3492.5 L -764.89775 -3493.3 C -764.89775 -3493.7418 -764.5396 -3494.1 -764.09775 -3494.1 Z" fill="white"/>
      </g>
    </g>
  </g>
</svg>
